X: 1
T: Everything Stops For Tea [C]
C: Maurice Sigler (tune)
C: Al Goodheart (words)
D: HMV BD-5005 (1935) - Jack Hylton and His Orchestra
N: \251 1935
N: Jack Buchanan's 1935 comedy film, "Come Out Of The Pantry" (Goodhart/Hoffman/Sigler)
M: C
L: 1/8
K: C
"(G7)"E>F \
| "C"G2 G2 G2 G2 \
| "G7"A2 G2 z2 E>F \
| "C"G>G G>G "Bb/D"_B>B B>B \
| "G7"G4 z2 G>G \
| "C"c>c G>G "C7"_B2 A>A |
| "F"G>F- F2 c4 \
| "C"E>E G2 "G7"D2 E>C- \
| "C"C4 "fine"z2 :| "(E7)"E>E \
| "Am"A>A A2 "E7"^G2 B>G \
| "Am"A2 E2 "E7"z2 E>E |
| "Am"(3A2A2A2 "E7"^G2 B2 \
| "Am"A4 z2 ^F>E \
| "D7"D>E ^F>G A>F- F>D \
| "G"G>A B>c d>B- B>c \
| "D7"d2 c2 B2{_B} A2 \
| "G"G4 "d.C."z2 |]
